!!!SOCIAL_FUNCTION:	bird dance songs
!!!PDT:	1956
!!!OTL: No_179_Song_of_an_Old_Dance_(b).krn
!!!LANG: Non-Tone
!!!LING_GROUP: Muskogean
!!!REG: Florida
**kern
*staff1
=1-
*clefF4
*k[b-e-]
*M2/4
8.B-\L
16B-\Jk
16G\LK
8.D\J
=2||
*M3/4
8.F\L
16F\Jk
8F\L
8F\J
8D\L
8D\J
=3||
*M5/8
8F\L
8F\
8F\
16F\K
8.F\J
=4||
*M2/4
8.F\L
16F\Jk
8F\
8r
=5
8.G\L
16A\Jk
16G\LK
8.D\J
=6||
*M3/4
8.F\L
16G\Jk
16F\LK
8.D\J
8BB-/L
8BB-/J
=7||
*M2/4
12F\L
12F\
[12F\J
4F\]
=8
4F\
8F\L
8F\J
=9
8.B-\L
16B-\Jk
16G\LK
8.D\J
=10||
*M3/4
8.F\L
16F\Jk
8F\L
8F\J
8D\L
8D\J
=11||
*M5/8
8F\L
8F\
8F\J
4F\
=12||
*M2/4
8.F\L
16F\Jk
4F\
=13
8.G\L
16A\Jk
16G\LK
8.D\J
=14||
*M3/4
8.F\L
16G\Jk
16F\LK
8.D\J
8BB-/L
8BB-;/J
=15||
*M2/4
4F\
4F\
=16
8.F\L
16F\Jk
4F\
=17
8.B-\L
16B-\Jk
16G\LK
8.D\J
=18||
*M3/4
8.F\L
16F\Jk
8F\L
8F\J
8D\L
8D\J
=19||
*M5/8
8F\L
8F\
8F\
16F\K
8.F\J
=20||
*M2/4
8.F\L
16F\Jk
8F\
8r
=21
8.G\L
16A\Jk
16G\LK
8.D\J
=22||
*M3/4
8.F\L
16G\Jk
16F\LK
8.D\J
8BB-/L
8BB-/J
=23||
*M2/4
12F\L
12F\
12F\J
4F\
=24
12F\L
12F\
12F\J
4F\
==
*-
